X:69
T: Die Rheinbraut
N: Q0047F
O: Mitteleuropa, Schweiz, Kanton Bern
N: Kleine melodische Variante abgedruckt.
R: Ballade, Braut - Werbung, Todesahnung, Tod
M: 6/8
L: 1/16
K: Bb
de | f4g2e4f2 | e2d2z6
de | f3fg2e4f2 | e2d2z6
de | f4d2d4c2 | b2b2d2f4z2 |
b2a2b2c2e4 | g2g2f2d4
de | f4d2d4c2 | b2b2d2f4z2 |
b2a2b2c2e4 | g2g2f2d4

@@@ Tune index: 805
